public/insights-logo-icon.svg

<?xml version="1.0" encoding="UTF-8"?>
<svg width="102px" height="102px" viewBox="0 0 102 102" version="1.1" xmlns="http://www.w3.org/2000/svg" xmlns:xlink="http://www.w3.org/1999/xlink">
    <title>编组</title>
    <g id="页面-1" stroke="none" stroke-width="1" fill="none" fill-rule="evenodd">
        <g id="logo3" transform="translate(-16.000000, -18.000000)" fill="#0F1419">
            <g id="编组" transform="translate(16.000000, 18.000000)">
                <path d="M51,0 C79.1665222,0 102,22.8334778 102,51 C102,79.1665222 79.1665222,102 51,102 C22.8334778,102 0,79.1665222 0,51 C0,22.8334778 22.8334778,0 51,0 Z M51,6.61111111 C26.4846936,6.61111111 6.61111111,26.4846936 6.61111111,51 C6.61111111,75.5153064 26.4846936,95.3888889 51,95.3888889 C75.5153064,95.3888889 95.3888889,75.5153064 95.3888889,51 C95.3888889,26.4846936 75.5153064,6.61111111 51,6.61111111 Z" id="形状结合"></path>
                <path d="M51,23.375 C66.2568662,23.375 78.625,35.7431338 78.625,51 C78.625,66.2568662 66.2568662,78.625 51,78.625 C35.7431338,78.625 23.375,66.2568662 23.375,51 C23.375,35.7431338 35.7431338,23.375 51,23.375 Z M51.1180556,30.2222222 C39.5776055,30.2222222 30.2222222,39.5776055 30.2222222,51.1180556 C30.2222222,62.6585056 39.5776055,72.0138889 51.1180556,72.0138889 C62.6585056,72.0138889 72.0138889,62.6585056 72.0138889,51.1180556 C72.0138889,39.5776055 62.6585056,30.2222222 51.1180556,30.2222222 Z" id="形状结合"></path>
                <circle id="椭圆形" cx="72.9583333" cy="22.6666667" r="4.72222222"></circle>
            </g>
        </g>
    </g>
</svg>

<svg width="102" height="102" xmlns="http://www.w3.org/2000/svg"><g fill="#0F1419" fill-rule="evenodd"><path d="M51 0c28.167 0 51 22.833 51 51s-22.833 51-51 51S0 79.167 0 51 22.833 0 51 0zm0 6.611C26.485 6.611 6.611 26.485 6.611 51c0 24.515 19.874 44.389 44.389 44.389 24.515 0 44.389-19.874 44.389-44.389C95.389 26.485 75.515 6.611 51 6.611z"/><path d="M51 23.375c15.257 0 27.625 12.368 27.625 27.625S66.257 78.625 51 78.625 23.375 66.257 23.375 51 35.743 23.375 51 23.375zm.118 6.847c-11.54 0-20.896 9.356-20.896 20.896 0 11.54 9.356 20.896 20.896 20.896 11.54 0 20.896-9.355 20.896-20.896 0-11.54-9.355-20.896-20.896-20.896z"/><circle cx="72.958" cy="22.667" r="4.722"/></g></svg>
